src/img/nav_button_program.svg

<svg width="59" height="71" viewBox="0 0 59 71" fill="none" xmlns="http://www.w3.org/2000/svg">
<path d="M12.8964 43.4C13.1737 43.4 13.4324 43.48 13.6724 43.64C13.9177 43.8 14.115 44.016 14.2644 44.288C14.4137 44.56 14.4884 44.864 14.4884 45.2C14.4884 45.5307 14.4137 45.832 14.2644 46.104C14.115 46.376 13.9177 46.5947 13.6724 46.76C13.4324 46.92 13.1737 47 12.8964 47H11.4244L11.5044 46.856V48.512C11.5044 48.6507 11.4617 48.768 11.3764 48.864C11.291 48.9547 11.179 49 11.0404 49C10.907 49 10.7977 48.9547 10.7124 48.864C10.627 48.768 10.5844 48.6507 10.5844 48.512V43.888C10.5844 43.7493 10.6297 43.6347 10.7204 43.544C10.8164 43.448 10.9337 43.4 11.0724 43.4H12.8964ZM12.8964 46.088C12.9977 46.088 13.0964 46.0453 13.1924 45.96C13.2884 45.8747 13.3684 45.7653 13.4324 45.632C13.4964 45.4933 13.5284 45.3493 13.5284 45.2C13.5284 45.0453 13.4964 44.9013 13.4324 44.768C13.3684 44.6347 13.2884 44.528 13.1924 44.448C13.0964 44.3627 12.9977 44.32 12.8964 44.32H11.4084L11.5044 44.176V46.216L11.4164 46.088H12.8964ZM15.9807 49C15.8314 49 15.698 48.9547 15.5807 48.864C15.4634 48.768 15.4047 48.6507 15.4047 48.512V43.888C15.4047 43.7493 15.45 43.6347 15.5407 43.544C15.6367 43.448 15.754 43.4 15.8927 43.4H18.1967C18.474 43.4 18.7327 43.4747 18.9727 43.624C19.218 43.768 19.4154 43.9707 19.5647 44.232C19.714 44.488 19.7887 44.784 19.7887 45.12C19.7887 45.3227 19.746 45.52 19.6607 45.712C19.5807 45.904 19.4687 46.0773 19.3247 46.232C19.186 46.3867 19.0287 46.5067 18.8527 46.592L18.8607 46.408C19.01 46.488 19.1327 46.584 19.2287 46.696C19.33 46.8027 19.4074 46.92 19.4607 47.048C19.5194 47.1707 19.554 47.304 19.5647 47.448C19.586 47.5813 19.5994 47.6987 19.6047 47.8C19.6154 47.9013 19.6314 47.9867 19.6527 48.056C19.6794 48.1253 19.7274 48.1787 19.7967 48.216C19.914 48.2853 19.986 48.3867 20.0127 48.52C20.0447 48.648 20.0154 48.7627 19.9247 48.864C19.866 48.9333 19.7914 48.9787 19.7007 49C19.61 49.016 19.5194 49.016 19.4287 49C19.338 48.9787 19.2634 48.952 19.2047 48.92C19.114 48.8667 19.0234 48.7893 18.9327 48.688C18.842 48.5813 18.7674 48.44 18.7087 48.264C18.6554 48.088 18.6287 47.8613 18.6287 47.584C18.6287 47.4933 18.6127 47.4107 18.5807 47.336C18.5487 47.256 18.5034 47.1893 18.4447 47.136C18.386 47.0773 18.3114 47.0347 18.2207 47.008C18.13 46.976 18.0234 46.96 17.9007 46.96H16.2847L16.4047 46.776V48.512C16.4047 48.6507 16.3674 48.768 16.2927 48.864C16.218 48.9547 16.114 49 15.9807 49ZM16.2927 46.136H18.1567C18.2527 46.136 18.346 46.0933 18.4367 46.008C18.5274 45.9173 18.602 45.7973 18.6607 45.648C18.7194 45.4933 18.7487 45.3253 18.7487 45.144C18.7487 44.9093 18.6847 44.7147 18.5567 44.56C18.434 44.4 18.3007 44.32 18.1567 44.32H16.3087L16.4047 44.064V46.328L16.2927 46.136ZM25.9708 46.2C25.9708 46.6 25.9041 46.9733 25.7708 47.32C25.6374 47.6667 25.4481 47.9733 25.2028 48.24C24.9628 48.5013 24.6748 48.7067 24.3388 48.856C24.0081 49.0053 23.6454 49.08 23.2508 49.08C22.8561 49.08 22.4934 49.0053 22.1628 48.856C21.8321 48.7067 21.5441 48.5013 21.2988 48.24C21.0588 47.9733 20.8721 47.6667 20.7388 47.32C20.6054 46.9733 20.5388 46.6 20.5388 46.2C20.5388 45.8 20.6054 45.4267 20.7388 45.08C20.8721 44.7333 21.0588 44.4293 21.2988 44.168C21.5441 43.9013 21.8321 43.6933 22.1628 43.544C22.4934 43.3947 22.8561 43.32 23.2508 43.32C23.6454 43.32 24.0081 43.3947 24.3388 43.544C24.6748 43.6933 24.9628 43.9013 25.2028 44.168C25.4481 44.4293 25.6374 44.7333 25.7708 45.08C25.9041 45.4267 25.9708 45.8 25.9708 46.2ZM24.9308 46.2C24.9308 45.8427 24.8588 45.52 24.7148 45.232C24.5708 44.9387 24.3734 44.7067 24.1228 44.536C23.8721 44.3653 23.5814 44.28 23.2508 44.28C22.9201 44.28 22.6294 44.3653 22.3788 44.536C22.1281 44.7067 21.9308 44.936 21.7868 45.224C21.6481 45.512 21.5788 45.8373 21.5788 46.2C21.5788 46.5573 21.6481 46.8827 21.7868 47.176C21.9308 47.464 22.1281 47.6933 22.3788 47.864C22.6294 48.0347 22.9201 48.12 23.2508 48.12C23.5814 48.12 23.8721 48.0347 24.1228 47.864C24.3734 47.6933 24.5708 47.464 24.7148 47.176C24.8588 46.8827 24.9308 46.5573 24.9308 46.2ZM29.5291 49.08C29.1237 49.08 28.7451 49.0053 28.3931 48.856C28.0411 48.7067 27.7317 48.5013 27.4651 48.24C27.1984 47.9733 26.9877 47.6667 26.8331 47.32C26.6837 46.9733 26.6091 46.6 26.6091 46.2C26.6091 45.8 26.6837 45.4267 26.8331 45.08C26.9877 44.7333 27.1984 44.4293 27.4651 44.168C27.7317 43.9013 28.0411 43.6933 28.3931 43.544C28.7451 43.3947 29.1237 43.32 29.5291 43.32C29.7797 43.32 30.0224 43.3467 30.2571 43.4C30.4917 43.4533 30.7077 43.5333 30.9051 43.64C30.9851 43.6827 31.0437 43.7413 31.0811 43.816C31.1237 43.8853 31.1451 43.9573 31.1451 44.032C31.1451 44.16 31.1024 44.2747 31.0171 44.376C30.9317 44.4773 30.8224 44.528 30.6891 44.528C30.6464 44.528 30.6011 44.5227 30.5531 44.512C30.5104 44.5013 30.4677 44.4853 30.4251 44.464C30.2917 44.4053 30.1504 44.36 30.0011 44.328C29.8517 44.296 29.6944 44.28 29.5291 44.28C29.1824 44.28 28.8651 44.368 28.5771 44.544C28.2944 44.7147 28.0677 44.9467 27.8971 45.24C27.7317 45.528 27.6491 45.848 27.6491 46.2C27.6491 46.5467 27.7317 46.8667 27.8971 47.16C28.0677 47.4533 28.2944 47.688 28.5771 47.864C28.8651 48.0347 29.1824 48.12 29.5291 48.12C29.6891 48.12 29.8651 48.104 30.0571 48.072C30.2491 48.04 30.4064 47.9973 30.5291 47.944L30.4571 48.184V46.816L30.5931 46.936H29.7051C29.5664 46.936 29.4491 46.8907 29.3531 46.8C29.2624 46.7093 29.2171 46.5947 29.2171 46.456C29.2171 46.3173 29.2624 46.2027 29.3531 46.112C29.4491 46.0213 29.5664 45.976 29.7051 45.976H31.0171C31.1557 45.976 31.2704 46.024 31.3611 46.12C31.4517 46.2107 31.4971 46.3253 31.4971 46.464V48.16C31.4971 48.2667 31.4704 48.3547 31.4171 48.424C31.3691 48.4933 31.3131 48.5493 31.2491 48.592C31.0037 48.7413 30.7344 48.8613 30.4411 48.952C30.1531 49.0373 29.8491 49.08 29.5291 49.08ZM33.0354 49C32.886 49 32.7527 48.9547 32.6354 48.864C32.518 48.768 32.4594 48.6507 32.4594 48.512V43.888C32.4594 43.7493 32.5047 43.6347 32.5954 43.544C32.6914 43.448 32.8087 43.4 32.9474 43.4H35.2514C35.5287 43.4 35.7874 43.4747 36.0274 43.624C36.2727 43.768 36.47 43.9707 36.6194 44.232C36.7687 44.488 36.8434 44.784 36.8434 45.12C36.8434 45.3227 36.8007 45.52 36.7154 45.712C36.6354 45.904 36.5234 46.0773 36.3794 46.232C36.2407 46.3867 36.0834 46.5067 35.9074 46.592L35.9154 46.408C36.0647 46.488 36.1874 46.584 36.2834 46.696C36.3847 46.8027 36.462 46.92 36.5154 47.048C36.574 47.1707 36.6087 47.304 36.6194 47.448C36.6407 47.5813 36.654 47.6987 36.6594 47.8C36.67 47.9013 36.686 47.9867 36.7074 48.056C36.734 48.1253 36.782 48.1787 36.8514 48.216C36.9687 48.2853 37.0407 48.3867 37.0674 48.52C37.0994 48.648 37.07 48.7627 36.9794 48.864C36.9207 48.9333 36.846 48.9787 36.7554 49C36.6647 49.016 36.574 49.016 36.4834 49C36.3927 48.9787 36.318 48.952 36.2594 48.92C36.1687 48.8667 36.078 48.7893 35.9874 48.688C35.8967 48.5813 35.822 48.44 35.7634 48.264C35.71 48.088 35.6834 47.8613 35.6834 47.584C35.6834 47.4933 35.6674 47.4107 35.6354 47.336C35.6034 47.256 35.558 47.1893 35.4994 47.136C35.4407 47.0773 35.366 47.0347 35.2754 47.008C35.1847 46.976 35.078 46.96 34.9554 46.96H33.3394L33.4594 46.776V48.512C33.4594 48.6507 33.422 48.768 33.3474 48.864C33.2727 48.9547 33.1687 49 33.0354 49ZM33.3474 46.136H35.2114C35.3074 46.136 35.4007 46.0933 35.4914 46.008C35.582 45.9173 35.6567 45.7973 35.7154 45.648C35.774 45.4933 35.8034 45.3253 35.8034 45.144C35.8034 44.9093 35.7394 44.7147 35.6114 44.56C35.4887 44.4 35.3554 44.32 35.2114 44.32H33.3634L33.4594 44.064V46.328L33.3474 46.136ZM40.0076 44.656L38.2796 48.72C38.2422 48.8213 38.1836 48.9013 38.1036 48.96C38.0289 49.0133 37.9462 49.04 37.8556 49.04C37.7116 49.04 37.6049 49 37.5356 48.92C37.4662 48.84 37.4316 48.7413 37.4316 48.624C37.4316 48.576 37.4396 48.5253 37.4556 48.472L39.4476 43.688C39.4902 43.5813 39.5542 43.4987 39.6396 43.44C39.7302 43.3813 39.8262 43.3573 39.9276 43.368C40.0236 43.368 40.1116 43.3973 40.1916 43.456C40.2769 43.5093 40.3382 43.5867 40.3756 43.688L42.3436 48.376C42.3702 48.4453 42.3836 48.5093 42.3836 48.568C42.3836 48.712 42.3356 48.8267 42.2396 48.912C42.1489 48.9973 42.0476 49.04 41.9356 49.04C41.8396 49.04 41.7516 49.0107 41.6716 48.952C41.5969 48.8933 41.5382 48.8133 41.4956 48.712L39.7756 44.704L40.0076 44.656ZM38.5276 47.744L38.9676 46.824H41.1276L41.2796 47.744H38.5276ZM43.5649 43.392C43.6396 43.392 43.7169 43.4133 43.7969 43.456C43.8823 43.4933 43.9463 43.544 43.9889 43.608L45.9329 46.6L45.5329 46.584L47.5249 43.608C47.6263 43.464 47.7569 43.392 47.9169 43.392C48.0449 43.392 48.1596 43.4373 48.2609 43.528C48.3623 43.6187 48.4129 43.736 48.4129 43.88V48.512C48.4129 48.6507 48.3676 48.768 48.2769 48.864C48.1863 48.9547 48.0663 49 47.9169 49C47.7676 49 47.6449 48.9547 47.5489 48.864C47.4583 48.768 47.4129 48.6507 47.4129 48.512V44.744L47.7249 44.816L46.0929 47.304C46.0449 47.3627 45.9836 47.4133 45.9089 47.456C45.8396 47.4987 45.7676 47.5173 45.6929 47.512C45.6236 47.5173 45.5516 47.4987 45.4769 47.456C45.4076 47.4133 45.3489 47.3627 45.3009 47.304L43.7729 44.888L43.9809 44.464V48.512C43.9809 48.6507 43.9383 48.768 43.8529 48.864C43.7676 48.9547 43.6556 49 43.5169 49C43.3836 49 43.2743 48.9547 43.1889 48.864C43.1036 48.768 43.0609 48.6507 43.0609 48.512V43.88C43.0609 43.7467 43.1089 43.632 43.2049 43.536C43.3063 43.44 43.4263 43.392 43.5649 43.392Z" fill="black"/>
<path d="M28.5487 0.00428702H29.2028C29.3563 0.00156844 29.5373 0 29.7187 0C40.5824 0 50.1207 5.67486 55.5309 14.2219L55.6048 14.3471L56.4055 15.5994L55.6048 16.8516C50.1431 25.4843 40.6672 31.1464 29.865 31.2013H29.1748L29.133 31.2014C23.6373 31.2014 18.4679 29.8041 13.9608 27.3454L14.1268 27.4283C9.46865 24.8589 5.65345 21.2857 2.87454 16.9808L2.80067 16.8586L2 15.6063L2.80067 14.3541C8.26239 5.72144 17.7383 0.0592857 28.5405 0.00439152H28.5486L28.5487 0.00428702ZM29.2028 4.65953H29.1493C29.0064 4.6567 28.838 4.65508 28.6692 4.65508C19.986 4.65508 12.3047 8.94436 7.62844 15.5198L7.5748 15.5993C12.455 22.2617 20.2496 26.5394 29.0435 26.5394C29.0996 26.5394 29.1556 26.5393 29.2116 26.5389H29.203H29.857C38.4925 26.4922 46.1194 22.2161 50.7775 15.6783L50.8311 15.5992C46.1194 8.98237 38.4925 4.70637 29.8643 4.65953H29.2564H29.2028ZM29.2028 0.00433967C37.8157 0.00433967 44.7978 6.98652 44.7978 15.5994C44.7978 24.2122 37.8156 31.1943 29.2028 31.1943C20.59 31.1943 13.6078 24.2121 13.6078 15.5993C13.6078 6.98652 20.59 0.00428702 29.2029 0.00428702L29.2028 0.00433967ZM29.2028 26.5392C35.2447 26.5392 40.1425 21.6412 40.1425 15.5994C40.1425 9.5575 35.2446 4.65963 29.2028 4.65963C23.1609 4.65963 18.263 9.5575 18.263 15.5994C18.263 21.6412 23.1609 26.5392 29.2028 26.5392ZM29.2028 8.84926C32.9308 8.84926 35.9529 11.8714 35.9529 15.5993C35.9529 19.3273 32.9308 22.3494 29.2028 22.3494C25.4749 22.3494 22.4528 19.3272 22.4528 15.5993C22.4528 11.8713 25.4749 8.84921 29.2028 8.84921L29.2028 8.84926ZM29.2028 17.6942C30.3597 17.6942 31.2976 16.7563 31.2976 15.5993C31.2976 14.4424 30.3597 13.5045 29.2028 13.5045C28.0458 13.5045 27.1079 14.4424 27.1079 15.5993C27.1079 16.7563 28.0458 17.6942 29.2028 17.6942Z" fill="black"/>
</svg>

<svg xmlns="http://www.w3.org/2000/svg" width="59" height="71" fill="none"><path fill="#000" d="M12.896 43.4c.278 0 .536.08.776.24.246.16.443.376.592.648.15.272.224.576.224.912 0 .33-.074.632-.224.904a1.85 1.85 0 0 1-.592.656c-.24.16-.498.24-.776.24h-1.472l.08-.144v1.656a.511.511 0 0 1-.128.352.44.44 0 0 1-.336.136.43.43 0 0 1-.328-.136.51.51 0 0 1-.128-.352v-4.624a.479.479 0 0 1 .488-.488h1.824Zm0 2.688c.102 0 .2-.043.296-.128a1.025 1.025 0 0 0 .336-.76.985.985 0 0 0-.096-.432.935.935 0 0 0-.24-.32.444.444 0 0 0-.296-.128h-1.488l.096-.144v2.04l-.088-.128h1.48ZM15.981 49a.637.637 0 0 1-.4-.136.44.44 0 0 1-.176-.352v-4.624a.479.479 0 0 1 .488-.488h2.304c.277 0 .536.075.776.224.245.144.442.347.592.608.149.256.224.552.224.888 0 .203-.043.4-.128.592a1.74 1.74 0 0 1-.336.52 1.524 1.524 0 0 1-.472.36l.008-.184c.149.08.272.176.368.288.101.107.178.224.232.352.058.123.093.256.104.4.021.133.034.25.04.352.01.101.026.187.048.256a.3.3 0 0 0 .144.16c.117.07.189.17.216.304a.358.358 0 0 1-.088.344.408.408 0 0 1-.224.136.777.777 0 0 1-.272 0 .903.903 0 0 1-.224-.08 1.168 1.168 0 0 1-.272-.232 1.268 1.268 0 0 1-.224-.424 2.4 2.4 0 0 1-.08-.68.623.623 0 0 0-.184-.448.516.516 0 0 0-.224-.128.962.962 0 0 0-.32-.048h-1.616l.12-.184v1.736a.556.556 0 0 1-.112.352.382.382 0 0 1-.312.136Zm.312-2.864h1.864c.096 0 .189-.043.28-.128.09-.09.165-.21.224-.36a1.41 1.41 0 0 0 .088-.504.885.885 0 0 0-.192-.584c-.123-.16-.256-.24-.4-.24h-1.848l.096-.256v2.264l-.112-.192Zm9.678.064c0 .4-.067.773-.2 1.12a2.865 2.865 0 0 1-.568.92 2.614 2.614 0 0 1-1.952.84 2.613 2.613 0 0 1-1.952-.84 2.938 2.938 0 0 1-.56-.92c-.134-.347-.2-.72-.2-1.12 0-.4.066-.773.2-1.12.133-.347.32-.65.56-.912.245-.267.533-.475.864-.624.33-.15.693-.224 1.088-.224.394 0 .757.075 1.088.224.336.15.624.357.864.624.245.261.434.565.568.912.133.347.2.72.2 1.12Zm-1.04 0c0-.357-.072-.68-.216-.968a1.762 1.762 0 0 0-.592-.696 1.512 1.512 0 0 0-.872-.256c-.33 0-.622.085-.872.256-.25.17-.448.4-.592.688a2.221 2.221 0 0 0-.208.976c0 .357.07.683.208.976.144.288.341.517.592.688.25.17.541.256.872.256.33 0 .621-.085.872-.256.25-.17.448-.4.592-.688.144-.293.216-.619.216-.976Zm4.598 2.88c-.405 0-.784-.075-1.136-.224a2.969 2.969 0 0 1-.928-.616 3.042 3.042 0 0 1-.632-.92 2.8 2.8 0 0 1-.224-1.12c0-.4.075-.773.224-1.12.155-.347.365-.65.632-.912a2.879 2.879 0 0 1 2.064-.848c.25 0 .493.027.728.08.235.053.45.133.648.24.08.043.139.101.176.176.043.07.064.141.064.216a.52.52 0 0 1-.128.344.41.41 0 0 1-.328.152.626.626 0 0 1-.136-.016.627.627 0 0 1-.128-.048 2.188 2.188 0 0 0-.896-.184 1.79 1.79 0 0 0-.952.264c-.283.17-.51.403-.68.696a1.893 1.893 0 0 0-.248.96c0 .347.083.667.248.96a2 2 0 0 0 .68.704c.288.17.605.256.952.256.16 0 .336-.016.528-.048a2.05 2.05 0 0 0 .472-.128l-.072.24v-1.368l.136.12h-.888a.493.493 0 0 1-.352-.136.466.466 0 0 1-.136-.344c0-.139.045-.253.136-.344a.493.493 0 0 1 .352-.136h1.312c.139 0 .253.048.344.144.09.09.136.205.136.344v1.696a.42.42 0 0 1-.08.264.63.63 0 0 1-.168.168c-.245.15-.515.27-.808.36a3.195 3.195 0 0 1-.912.128Zm3.506-.08a.636.636 0 0 1-.4-.136.439.439 0 0 1-.176-.352v-4.624a.479.479 0 0 1 .488-.488h2.304c.278 0 .536.075.776.224.246.144.443.347.592.608.15.256.224.552.224.888 0 .203-.042.4-.128.592a1.74 1.74 0 0 1-.336.52 1.524 1.524 0 0 1-.472.36l.008-.184c.15.08.272.176.368.288.102.107.179.224.232.352.059.123.094.256.104.4.022.133.035.25.04.352.011.101.027.187.048.256a.3.3 0 0 0 .144.16c.118.07.19.17.216.304a.359.359 0 0 1-.088.344.408.408 0 0 1-.224.136.777.777 0 0 1-.272 0 .901.901 0 0 1-.224-.08 1.166 1.166 0 0 1-.272-.232 1.267 1.267 0 0 1-.224-.424 2.396 2.396 0 0 1-.08-.68.623.623 0 0 0-.184-.448.516.516 0 0 0-.224-.128.963.963 0 0 0-.32-.048H33.34l.12-.184v1.736a.556.556 0 0 1-.112.352.382.382 0 0 1-.312.136Zm.312-2.864h1.864c.096 0 .19-.043.28-.128.091-.09.166-.21.224-.36.059-.155.088-.323.088-.504a.885.885 0 0 0-.192-.584c-.122-.16-.256-.24-.4-.24h-1.848l.096-.256v2.264l-.112-.192Zm6.66-1.48L38.28 48.72a.507.507 0 0 1-.176.24.417.417 0 0 1-.248.08c-.144 0-.251-.04-.32-.12a.436.436 0 0 1-.104-.296.53.53 0 0 1 .024-.152l1.992-4.784a.53.53 0 0 1 .192-.248.433.433 0 0 1 .288-.072c.096 0 .184.03.264.088.085.053.146.13.184.232l1.968 4.688a.54.54 0 0 1 .04.192.437.437 0 0 1-.144.344.433.433 0 0 1-.568.04.587.587 0 0 1-.176-.24l-1.72-4.008.232-.048Zm-1.48 3.088.44-.92h2.16l.153.92h-2.752Zm5.038-4.352c.075 0 .152.021.232.064.085.037.15.088.192.152l1.944 2.992-.4-.016 1.992-2.976a.461.461 0 0 1 .392-.216c.128 0 .243.045.344.136a.45.45 0 0 1 .152.352v4.632a.493.493 0 0 1-.136.352.486.486 0 0 1-.36.136.514.514 0 0 1-.368-.136.494.494 0 0 1-.136-.352v-3.768l.312.072-1.632 2.488a.652.652 0 0 1-.184.152.356.356 0 0 1-.216.056.375.375 0 0 1-.216-.056.697.697 0 0 1-.176-.152l-1.528-2.416.208-.424v4.048a.51.51 0 0 1-.128.352.44.44 0 0 1-.336.136.43.43 0 0 1-.328-.136.511.511 0 0 1-.128-.352V43.88a.47.47 0 0 1 .144-.344.506.506 0 0 1 .36-.144ZM28.549.004h.654c.153-.002.334-.004.516-.004C40.582 0 50.12 5.675 55.53 14.222l.074.125.8 1.252-.8 1.253c-5.462 8.632-14.938 14.294-25.74 14.35h-.732a31.586 31.586 0 0 1-15.172-3.857l.166.083c-4.658-2.57-8.474-6.142-11.252-10.447l-.074-.122L2 15.606l.8-1.252C8.263 5.721 17.739.06 28.54.004h.009Zm.654 4.656h-.054a24.99 24.99 0 0 0-.48-.005c-8.683 0-16.364 4.29-21.04 10.865l-.054.08c4.88 6.662 12.675 10.94 21.469 10.94l.168-.001h-.009.654c8.636-.047 16.262-4.323 20.92-10.86l.054-.08C46.12 8.982 38.492 4.706 29.864 4.66h-.661Zm0-4.656c8.613 0 15.595 6.983 15.595 15.595 0 8.613-6.982 15.595-15.595 15.595S13.608 24.212 13.608 15.6C13.608 6.987 20.59.004 29.203.004Zm0 26.535c6.042 0 10.94-4.898 10.94-10.94S35.245 4.66 29.203 4.66s-10.94 4.898-10.94 10.94 4.898 10.94 10.94 10.94Zm0-17.69a6.75 6.75 0 1 1 0 13.5 6.75 6.75 0 0 1 0-13.5Zm0 8.845a2.095 2.095 0 1 0 0-4.19 2.095 2.095 0 0 0 0 4.19Z"/></svg>
